!!!!SEGMENT: pl-wnifc--6730-n--017_sowinski-wojciech--chants-religieux-de-la-pologne-op-93-a-la-providence-dieu-de-bonte-divine-providence.krn
!!!cenid: 18xx:4031
!!!COM: Sowiński, Wojciech
!!!COM-rismID: pe30008543
!!!CDT: ~1803-1880/03/05
!!!CNT:
!!!OTL: Chants religieux de la Pologne op. 93
!!!PDT: 1830
!!!AGN:
!!!SMS-siglum: PL-Wnifc
!!!SMS-shelfmark: 6730/n
!!!SMS-shelfwork: 017 W
!!!SMS-variant:
!!!SMS-altvar:
!!!NIFC-rismSourceID: 1001138221
!!!NIFC-rismChildID: 1001138239
!!!NIFC-islandoraID: nifc:213350
!!!URL-pdf-islandora: https://repozytorium.nifc.pl/islandora/object/nifc%3A213350/datastream/PDF/view
!!!URL-scan: https://polish.musicsources.pl/pl/lokalizacje/galeria/druki-muzyczne/16913 @EN{Scan on Polish Music Sources Website} @PL{Skany w portalu Dziedzictwo Muzyki Polskiej w otwartym dostępie}
!!!ONB-nifc: UWAGA: str. 64-66
!!!AIN: 1 calto 2 organ 2 soprn
!!!key: G
**kern	**kern	**dynam	**kern	**text	**dynam	**kern	**text	**dynam	**kern	**text	**dynam
*part5	*part4	*part4	*part3	*part3	*part3	*part2	*part2	*part2	*part1	*part1	*part1
*staff5	*staff4	*	*staff3	*staff3	*	*staff2	*staff2	*	*staff1	*staff1	*
*I"Organo	*I"ORGUE.	*	*I"CONTRALTO.	*	*	*I"2.d DESSUS.	*	*	*I"1.er DESSUS.	*	*
*	*I'org	*	*I'Contra-A	*	*	*I'S 2	*	*	*I'S 1	*	*
*Iorgan	*Iorgan	*	*Icalto	*	*	*Isoprn	*	*	*Isoprn	*	*
*ICklav	*ICklav	*	*ICvox	*	*	*ICvox	*	*	*ICvox	*	*
*clefF4	*clefG2	*	*clefG2	*	*	*clefG2	*	*	*clefG2	*	*
*k[f#]	*k[f#]	*	*k[f#]	*	*	*k[f#]	*	*	*k[f#]	*	*
*G:	*G:	*	*G:	*	*	*G:	*	*	*G:	*	*
*M4/4	*M4/4	*	*M4/4	*	*	*M4/4	*	*	*M4/4	*	*
*met(c)	*met(c)	*	*met(c)	*	*	*met(c)	*	*	*met(c)	*	*
=1	=1	=1	=1	=1	=1	=1	=1	=1	=1	=1	=1
!	!	!	!	!	!	!	!	!	!LO:TX:a:B:t=Allo. giusto	!	!
!	!LO:TX:a:B:t=Allo. giusto	!	!	!	!	!	!	!	!LO:TX:a:B:t=Allegro	!	!
2GG/ 2G	2d\ 2g 2b 2dd	.	1r	.	.	1r	.	.	1r	.	.
4FF#/ 4F#	4d\ 4a 4dd	.	.	.	.	.	.	.	.	.	.
4GG/ 4G	4d\ 4g 4b 4dd	.	.	.	.	.	.	.	.	.	.
=2	=2	=2	=2	=2	=2	=2	=2	=2	=2	=2	=2
2EE/ 2E	2e\ 2g 2b 2ee	sf	1r	.	.	1r	.	.	1r	.	.
2GG/ 2G	2g\ 2b 2dd	.	.	.	.	.	.	.	.	.	.
=3	=3	=3	=3	=3	=3	=3	=3	=3	=3	=3	=3
4.BBB/ 4.BB	4.g\ 4.dd 4.gg	sf	1r	.	.	1r	.	.	1r	.	.
8GGG/ 8GG	8g\ 8b	.	.	.	.	.	.	.	.	.	.
4AAA/ 4AA	4g\ 4cc	.	.	.	.	.	.	.	.	.	.
4BBB/ 4BB	4g\ 4dd	.	.	.	.	.	.	.	.	.	.
=4	=4	=4	=4	=4	=4	=4	=4	=4	=4	=4	=4
4CC/ 4C	4g^<\ 4ee	.	1r	.	.	1r	.	.	1r	.	.
4DD/ 4D	4f#\ 4dd	.	.	.	.	.	.	.	.	.	.
2GG/ 2G	2g\ 2b	.	.	.	.	.	.	.	.	.	.
=5	=5	=5	=5	=5	=5	=5	=5	=5	=5	=5	=5
!	!	!	!	!	!LO:DY:a	!	!	!LO:DY:a	!	!	!LO:DY:a
2GG\ 2G	(8dd\L	mf	2g/	Dieu	f	2b\	Dieu	f	2dd\	Dieu	f
.	8b\	.	.	.	.	.	.	.	.	.	.
.	8dd\	.	.	.	.	.	.	.	.	.	.
.	8g\J)	.	.	.	.	.	.	.	.	.	.
2GG\ 2G	(8dd\L	.	4g/	de	.	4b\	de	.	4dd\	de	.
.	8b\	.	.	.	.	.	.	.	.	.	.
.	8dd\	.	4g/	bon-	.	4b\	bon-	.	4dd\	bon-	.
.	8g\J)	.	.	.	.	.	.	.	.	.	.
!LO:LB:g=original	!LO:LB:g=original	!	!LO:LB:g=original	!	!	!LO:LB:g=original	!	!	!LO:LB:g=original	!	!
=6	=6	=6	=6	=6	=6	=6	=6	=6	=6	=6	=6
2EE/ 2E	8ee^<\L	.	2e/	-té	.	2g/	-té	.	2ee\	-té	.
.	8b\	.	.	.	.	.	.	.	.	.	.
.	8ee\	.	.	.	.	.	.	.	.	.	.
.	8g\J	.	.	.	.	.	.	.	.	.	.
2GG/ 2G	8dd\L	.	2g/	di-	.	2b/	di-	.	2dd\	di-	.
.	8b\	.	.	.	.	.	.	.	.	.	.
.	8dd\	.	.	.	.	.	.	.	.	.	.
.	8g\J	.	.	.	.	.	.	.	.	.	.
=7	=7	=7	=7	=7	=7	=7	=7	=7	=7	=7	=7
2CC/ 2C	8ee^<\L	.	4.c/	-vi-	.	4.cc\	-vi-	.	4.ee\	-vi-	.
.	8cc\	.	.	.	.	.	.	.	.	.	.
.	8ee\	.	.	.	.	.	.	.	.	.	.
.	8g\J	.	8d/	-ne	.	8g/	-ne	.	8dd\	-ne	.
2C\ 2c	8cc\L	.	4e/	pro-	.	4g/	pro-	.	4cc\	pro-	.
.	8g\	.	.	.	.	.	.	.	.	.	.
.	8ee\	.	4c/	-vi-	.	4g/	-vi-	.	4ee\	-vi-	.
.	8g\J	.	.	.	.	.	.	.	.	.	.
=8	=8	=8	=8	=8	=8	=8	=8	=8	=8	=8	=8
4GG\ 4G	8g\L 8b	<	2g/	-den-	.	(4.b\	-den-	.	(4.dd\	-den-	.
.	8dd\J	.	.	.	.	.	.	.	.	.	.
4D\	8a\L 8cc	.	.	.	.	.	.	.	.	.	.
.	8ff#\J	.	.	.	.	8a/)	.	.	8cc\)	.	.
4GG\ 4G	8gg\L	[ >	2g/	-ce	.	2g/	-ce	.	2b\	-ce	.
.	8dd\	.	.	.	.	.	.	.	.	.	.
4r	8b\	.	.	.	.	.	.	.	.	.	.
.	8g\J	]]	.	.	.	.	.	.	.	.	.
=9	=9	=9	=9	=9	=9	=9	=9	=9	=9	=9	=9
!	!	!	!	!	!LO:DY:a	!	!	!LO:DY:a	!	!	!LO:DY:a
2GG\ 2G	8b\L 8dd	.	2g/	ray-	<	2b\	ray-	<	2dd\	ray-	<
.	8g\	.	.	.	.	.	.	.	.	.	.
.	8b\	.	.	.	.	.	.	.	.	.	.
.	8dd\J	.	.	.	.	.	.	.	.	.	.
4GGG/ 4GG	8gg\L	.	4B/	-on	.	4g\	-on	.	4gg\	-on	.
.	8b\	.	.	.	.	.	.	.	.	.	.
4BBB/ 4BB	8ff#\	.	4B/	d`a-	[[	4dd\	d`a-	[[	4ff#\	d`a-	[[
.	8dd\J	.	.	.	.	.	.	.	.	.	.
=10	=10	=10	=10	=10	=10	=10	=10	=10	=10	=10	=10
!	!	!	!	!	!LO:DY:a	!	!	!LO:DY:a	!	!	!LO:DY:a
2CC/ 2C	8ee\L	.	2c/	-mour	>	2cc\	-mour	>	2ee\	-mour	>
.	8cc\	.	.	.	.	.	.	.	.	.	.
.	8g\	.	.	.	.	.	.	.	.	.	.
.	8ee\J	.	.	.	.	.	.	.	.	.	.
2GG\ 2G	8dd\L	.	2g/	de	]]	2b\	de	]]	2dd\	de	]]
.	8b\	.	.	.	.	.	.	.	.	.	.
.	8g\	.	.	.	.	.	.	.	.	.	.
.	8dd\J	.	.	.	.	.	.	.	.	.	.
!LO:LB:g=original	!LO:LB:g=original	!	!LO:LB:g=original	!	!	!LO:LB:g=original	!	!	!LO:LB:g=original	!	!
=11	=11	=11	=11	=11	=11	=11	=11	=11	=11	=11	=11
4CC/ 4C	8ee\L	.	4.c/	paix	.	4.g/	paix	.	4.ee\	paix	.
.	8g\	.	.	.	.	.	.	.	.	.	.
4DD/ 4D	8dd\	.	.	.	.	.	.	.	.	.	.
.	8g\J	.	8d/	et	.	8g/	et	.	8dd\	et	.
4EE/ 4E	8cc\L	.	4e/	d`es-	.	4g/	d`es-	.	4cc\	d`es-	.
.	8ee\	.	.	.	.	.	.	.	.	.	.
4CC/ 4C	8gg\	.	4c/	-pé-	.	4g/	-pé-	.	4ee\	-pé-	.
.	8ee\J	.	.	.	.	.	.	.	.	.	.
=12	=12	=12	=12	=12	=12	=12	=12	=12	=12	=12	=12
2GG\ 2G	(8dd\L	.	2g/	-ran-	.	(4.b/	-ran-	.	(4.dd\	-ran-	.
.	8g\	.	.	.	.	.	.	.	.	.	.
.	8b\ 8dd	.	.	.	.	.	.	.	.	.	.
.	8a\J) 8cc	.	.	.	.	8a/)	.	.	8cc\)	.	.
4GG\ 4G	(8g\L 8b	.	2g/	-ce	.	2g/	-ce	.	2b\	-ce	.
.	8a\ 8cc	.	.	.	.	.	.	.	.	.	.
4r	8a#X\ 8cc#X	.	.	.	.	.	.	.	.	.	.
.	8b\J) 8dd	.	.	.	.	.	.	.	.	.	.
=13	=13	=13	=13	=13	=13	=13	=13	=13	=13	=13	=13
!	!LO:TX:b:i:t=allargando	!	!	!	!LO:DY:a	!	!	!LO:DY:a	!LO:TX:a:i:t=allargando.	!	!LO:DY:a
2DD\ 2D	8d\L	.	2f#/	Qui	f	2a/	Qui	f	2dd\	Qui	f
.	8f#\	.	.	.	.	.	.	.	.	.	.
.	8an\	.	.	.	.	.	.	.	.	.	.
.	8dd\J	.	.	.	.	.	.	.	.	.	.
2GG\ 2G	8d\L	.	2g/	luit	.	2b/	luit	.	2dd\	luit	.
.	8g\	.	.	.	.	.	.	.	.	.	.
.	8b\	.	.	.	.	.	.	.	.	.	.
.	8dd\J	.	.	.	.	.	.	.	.	.	.
=14	=14	=14	=14	=14	=14	=14	=14	=14	=14	=14	=14
2EE\ 2E	8e\L	.	2e/	tou-	.	2g#X/	tou-	.	(4ee\	tou-	.
.	8g#X\	.	.	.	.	.	.	.	.	.	.
.	8b\	.	.	.	.	.	.	.	4dd\)	.	.
.	8ee\J	.	.	.	.	.	.	.	.	.	.
4AA\ 4A	8a\L 8cc	.	2a/	-jours	.	(4a/	-jours	.	2cc\	-jours	.
.	8e\	.	.	.	.	.	.	.	.	.	.
4AAA/ 4AA	8a\ 8cc	.	.	.	.	4gn/)	.	.	.	.	.
.	8gn\J	.	.	.	.	.	.	.	.	.	.
=15	=15	=15	=15	=15	=15	=15	=15	=15	=15	=15	=15
2DD;\ 2D	8f#\L	.	2d;/	sur	.	2f#;/	sur	.	2dd;\	sur	.
.	8a\	.	.	.	.	.	.	.	.	.	.
!	!LO:TX:b:i:t=colla parte	!	!	!	!	!	!	!	!	!	!
.	8d\	.	.	.	.	.	.	.	.	.	.
.	8dd;\J	.	.	.	.	.	.	.	.	.	.
2GGG;/ 2GG	8b\L	.	2B;/	nous	.	2g;/	nous	.	2g;/	nous	.
.	8dd\	.	.	.	.	.	.	.	.	.	.
.	8g\	.	.	.	.	.	.	.	.	.	.
.	8gg;\J	.	.	.	.	.	.	.	.	.	.
!LO:LB:g=original	!LO:LB:g=original	!	!LO:LB:g=original	!	!	!LO:LB:g=original	!	!	!LO:LB:g=original	!	!
=16||	=16||	=16||	=16||	=16||	=16||	=16||	=16||	=16||	=16||	=16||	=16||
!	!LO:TX:a:B:t=Tempo 1.o	!	!	!	!	!	!	!	!	!	!
4D\ 4d	2f#\ 2a 2dd	f	1r	.	.	1r	.	.	1r	.	.
4C#X\ 4c#X	.	.	.	.	.	.	.	.	.	.	.
4Cn\ 4cn	4f#\ 4a 4ee	.	.	.	.	.	.	.	.	.	.
4BB\ 4B	4g\ 4dd	.	.	.	.	.	.	.	.	.	.
=17	=17	=17	=17	=17	=17	=17	=17	=17	=17	=17	=17
4AA\ 4A	4cc\ 4ff#	.	1r	.	.	1r	.	.	1r	.	.
4GG\ 4G	(4b\ 4gg	.	.	.	.	.	.	.	.	.	.
4EE\ 4E	4g\)	.	.	.	.	.	.	.	.	.	.
4CC#X/ 4C#X	4g\ 4a	.	.	.	.	.	.	.	.	.	.
=18	=18	=18	=18	=18	=18	=18	=18	=18	=18	=18	=18
*	*^	*	*	*	*	*	*	*	*	*	*
*	*	*^	*	*	*	*	*	*	*	*	*	*
2DD/ 2D	2b/	2g\	2ryy	.	1r	.	.	1r	.	.	1r	.	.
2DD/ 2D	2a/	4g\	2d\	.	.	.	.	.	.	.	.	.	.
.	.	4f#\	.	.	.	.	.	.	.	.	.	.	.
*	*v	*v	*v	*	*	*	*	*	*	*	*	*	*
=19	=19	=19	=19	=19	=19	=19	=19	=19	=19	=19	=19
1GGG 1GG	1B 1g	.	1r	.	.	1r	.	.	1r	.	.
=20||	=20||	=20||	=20||	=20||	=20||	=20||	=20||	=20||	=20||	=20||	=20||
!	!	!	!	!	!LO:DY:a	!	!	!LO:DY:a	!LO:TX:a:t=2me COUPLET.	!	!LO:DY:a
(8GG\L	2g\ 2b 2dd	p	2g/	Pour	p	2b\	Pour	p	2dd\	Pour	p
8BB\	.	.	.	.	.	.	.	.	.	.	.
8D\	.	.	.	.	.	.	.	.	.	.	.
8G\J)	.	.	.	.	.	.	.	.	.	.	.
4GG/	4r	.	4g/	vous	.	4b\	vous	.	4dd\	vous	.
4r	4g\ 4b 4dd	.	4g/	pri-	.	4b\	pri-	.	4dd\	pri-	.
=21	=21	=21	=21	=21	=21	=21	=21	=21	=21	=21	=21
(8EE/L	2g\ 2b 2ee	.	2e^>/	-er	.	2g^\	-er	.	2ee^\	-er	.
8GG/	.	.	.	.	.	.	.	.	.	.	.
8BB/	.	.	.	.	.	.	.	.	.	.	.
8E/J)	.	.	.	.	.	.	.	.	.	.	.
4GG/	4r	.	2g/	je	.	2b\	je	.	2dd\	je	.
4r	(4g\ 4b 4dd	.	.	.	.	.	.	.	.	.	.
!LO:LB:g=original	!LO:LB:g=original	!	!LO:LB:g=original	!	!	!LO:LB:g=original	!	!	!LO:LB:g=original	!	!
=22	=22	=22	=22	=22	=22	=22	=22	=22	=22	=22	=22
4.CC/ 4.C	4.g\ 4.cc 4.ee	.	4.c/	de-	.	4.cc\	de-	.	4.ee\	de-	.
8GG/	8g\ 8dd	.	8d/	-van-	.	8g\	-van-	.	8dd\	-van-	.
4EE/	4g\ 4cc	.	4e/	-ce	.	4g\	-ce	.	4cc\	-ce	.
4CC/ 4C	4g\) 4ee	.	4c/	l`au-	.	4cc\	l`au-	.	4ee\	l`au-	.
=23	=23	=23	=23	=23	=23	=23	=23	=23	=23	=23	=23
(8GG\L	(4.b\ 4.dd	.	2g/	-ro-	.	4.b\	-ro-	.	4.dd\	-ro-	.
8BB\	.	.	.	.	.	.	.	.	.	.	.
8D\	.	.	.	.	.	.	.	.	.	.	.
8F#\J)	8a\) 8cc	.	.	.	.	8a\	.	.	8cc\	.	.
4G\	4g\ 4b	.	2g/	-re	.	2g\	-re	.	2b\	-re	.
8D\L	4r	.	.	.	.	.	.	.	.	.	.
8BB\J	.	.	.	.	.	.	.	.	.	.	.
=24	=24	=24	=24	=24	=24	=24	=24	=24	=24	=24	=24
!	!	!	!	!	!LO:DY:a	!	!	!LO:DY:a	!	!	!LO:DY:a
8GG\L	2g\ 2b 2dd	.	2g/	Et	f	2b\	Et	f	2dd\	Et	f
8BB\	.	.	.	.	.	.	.	.	.	.	.
8D\	.	.	.	.	.	.	.	.	.	.	.
8G\J	.	.	.	.	.	.	.	.	.	.	.
4GG/	4g\ 4b 4gg	.	4B/	quand	.	4g\	quand	.	4gg\	quand	.
4BB/	4g\ 4dd 4ff#	.	4B/	le	.	4dd\	le	.	4ff#\	le	.
=25	=25	=25	=25	=25	=25	=25	=25	=25	=25	=25	=25
(8CC/L	2g\ 2cc 2ee	.	2c/	jour	.	2cc\	jour	.	2ee\	jour	.
8EE/	.	.	.	.	.	.	.	.	.	.	.
8GG/	.	.	.	.	.	.	.	.	.	.	.
8C/J)	.	.	.	.	.	.	.	.	.	.	.
4GG/	4r	.	2g/	s`é-	.	2b\	s`é-	.	2dd\	s`é-	.
4r	4g\ 4b 4dd	.	.	.	.	.	.	.	.	.	.
=26	=26	=26	=26	=26	=26	=26	=26	=26	=26	=26	=26
*^	*	*	*	*	*	*	*	*	*	*	*
!	!	!	!	!	!	!LO:DY:a	!	!	!LO:DY:a	!	!	!LO:DY:a
4CC/	2CC\	(4.g\ 4.cc 4.ee	.	4.c/	-teint	p	4.cc\	-teint	p	4.ee\	-teint	p
4C/	.	.	.	.	.	.	.	.	.	.	.	.
.	.	8dd\)	.	8d/	je	.	8g\	je	.	8dd\	je	.
4EE/	2EE\	4g\ 4cc	.	4e/	prie	.	4g\	prie	.	4cc\	prie	.
4C/	.	4g\ 4ee	.	4c/	en-	.	4g\	en-	.	4ee\	en-	.
=27	=27	=27	=27	=27	=27	=27	=27	=27	=27	=27	=27	=27
4GG/	2GG\	(4.b\ 4.dd	.	2g/	-co-	.	(4.b\	-co-	.	(4.dd\	-co-	.
4D/	.	.	.	.	.	.	.	.	.	.	.	.
.	.	8a\) 8cc	.	.	.	.	8a\)	.	.	8cc\)	.	.
4G\	2ryy	4g\ 4b	.	2g/	-re	.	2g\	-re	.	2b\	-re	.
4r	.	4r	.	.	.	.	.	.	.	.	.	.
!LO:PB:g=original	!LO:PB:g=original	!LO:PB:g=original	!	!LO:PB:g=original	!	!	!LO:PB:g=original	!	!	!LO:PB:g=original	!	!
*v	*v	*	*	*	*	*	*	*	*	*	*	*
=28	=28	=28	=28	=28	=28	=28	=28	=28	=28	=28	=28
8DD/L	2d\ 2f# 2a 2dd	f	2f#/	trem-	.	2a\	trem-	.	2dd\	trem-	.
8FF#/	.	.	.	.	.	.	.	.	.	.	.
8AA/	.	.	.	.	.	.	.	.	.	.	.
8D/J	.	.	.	.	.	.	.	.	.	.	.
4GG/	4r	.	4.g/	-blant	.	4.b\	-blant	.	4.dd\	-blant	.
4r	4g\ 4b 4dd	.	.	.	.	.	.	.	.	.	.
.	.	.	8g/	à	.	8b\	à	.	8dd\	à	.
=29	=29	=29	=29	=29	=29	=29	=29	=29	=29	=29	=29
*	*^	*	*	*	*	*	*	*	*	*	*
8EE/L	4ee/	2e\ 2g#X	sf >	4g#X/	vos	.	4b\	vos	.	4ee\	vos	.
8GG#X/	.	.	.	.	.	.	.	.	.	.	.	.
8BB/	4dd/	.	.	4e/	ge-	.	4b\	ge-	.	4dd\	ge-	.
8E/J	.	.	.	.	.	.	.	.	.	.	.	.
4AA/	4r	4ryy	]	4.a/	-noux	.	4.a\	-noux	.	4.cc\	-noux	.
4r	4cc/	8e\L 8a	.	.	.	.	.	.	.	.	.	.
.	.	8gn\J	.	8gn/	à	.	8a\	à	.	8cc\	à	.
*	*v	*v	*	*	*	*	*	*	*	*	*	*
=30	=30	=30	=30	=30	=30	=30	=30	=30	=30	=30	=30
2DD\ 2D	8f#\L	<	4.f#/	vos	.	4.a\	vos	.	4.dd\	vos	.
.	8a\	.	.	.	.	.	.	.	.	.	.
.	8dd\	.	.	.	.	.	.	.	.	.	.
.	8ff#\J	.	8f#/	ge-	.	8f#/	ge-	.	8dd\	ge-	.
!	!LO:TX:b:B:t=lento	!	!	!	!	!	!	!	!LO:TX:a:B:t=Lento	!	!
2GG;\	2g;\ 2b 2gg	[	2B;/	-noux	.	2g;/	-noux	.	2g;/	-noux	.
=31||	=31||	=31||	=31||	=31||	=31||	=31||	=31||	=31||	=31||	=31||	=31||
!	!LO:TX:a:B:t=a tempo.	!	!	!	!	!	!	!	!LO:TX:a:B:t=Allegro	!	!
4GG\ 4G	2g\ 2b	f	1r	.	.	1r	.	.	1r	.	.
4FF#\ 4F#	.	.	.	.	.	.	.	.	.	.	.
4EE\ 4E	2g\ 2b	.	.	.	.	.	.	.	.	.	.
4DD\ 4D	.	.	.	.	.	.	.	.	.	.	.
=32	=32	=32	=32	=32	=32	=32	=32	=32	=32	=32	=32
*	*^	*	*	*	*	*	*	*	*	*	*
2CC\ 2C	2ee\	2g\	.	1r	.	.	1r	.	.	1r	.	.
4DD\ 4D	4dd/	2a\	.	.	.	.	.	.	.	.	.	.
(8EE\L 8E	4cc/	.	.	.	.	.	.	.	.	.	.	.
8FF#\J) 8F#	.	.	.	.	.	.	.	.	.	.	.	.
=33	=33	=33	=33	=33	=33	=33	=33	=33	=33	=33	=33	=33
4GG\ 4G	(4b/	4g\	.	1r	.	.	1r	.	.	1r	.	.
4FF#\ 4F#	4dd/	4a\	.	.	.	.	.	.	.	.	.	.
4EE\ 4E	4cc/	4g\	.	.	.	.	.	.	.	.	.	.
4DD\ 4D	4b/)	4f#\	.	.	.	.	.	.	.	.	.	.
!LO:LB:g=original	!LO:LB:g=original	!LO:LB:g=original	!	!LO:LB:g=original	!	!	!LO:LB:g=original	!	!	!LO:LB:g=original	!	!
=34	=34	=34	=34	=34	=34	=34	=34	=34	=34	=34	=34	=34
4.CC\ 4.C	4.a/	4.e\	<	1r	.	.	1r	.	.	1r	.	.
8BBB\ 8BB	8b/	8d#X\	.	.	.	.	.	.	.	.	.	.
2BBB;\ 2BB	2b/	2d#\	[ >	.	.	.	.	.	.	.	.	.
*	*v	*v	*	*	*	*	*	*	*	*	*	*
=35||	=35||	=35||	=35||	=35||	=35||	=35||	=35||	=35||	=35||	=35||	=35||
!	!	!	!	!	!LO:DY:a	!	!	!LO:DY:a	!LO:TX:a:t=3me COUPLET.	!	!LO:DY:a
2GGG/ 2GG	2dn\ 2g 2b 2dd	] f	2g/	O	p	2b\	O	p	2dd\	O	p
4GG\ 4G	4d\ 4g 4b 4dd	.	4g/	mon	.	4b\	mon	.	4dd\	mon	.
4GG\ 4G	4d\ 4g 4b 4dd	.	4g/	sau-	.	4b\	sau-	.	4dd\	sau-	.
=36	=36	=36	=36	=36	=36	=36	=36	=36	=36	=36	=36
2CC/ 2C	2e\ 2g 2cc 2ee	.	2c^>/	-veur	.	2g^\	-veur	.	2ee^\	-veur	.
2GG\ 2G	2d\ 2g 2b 2dd	.	2g/	sous	.	2b\	sous	.	2dd\	sous	.
=37	=37	=37	=37	=37	=37	=37	=37	=37	=37	=37	=37
*	*^	*	*	*	*	*	*	*	*	*	*
2CC/ 2C	4.ee/	2g\	.	4.c/	ces	.	4.cc\	ces	.	4.ee\	ces	.
.	8dd/	.	.	8d/	voû-	.	8g/	voû-	.	8dd\	voû-	.
4EE/ 4E	4cc/	4g\	.	4e/	-tes	.	4g/	-tes	.	4cc\	-tes	.
4CC/ 4C	4ee/	4g\	.	4c/	bé-	.	4g/	bé-	.	4ee\	bé-	.
*	*v	*v	*	*	*	*	*	*	*	*	*	*
=38	=38	=38	=38	=38	=38	=38	=38	=38	=38	=38	=38
[2GG\ [2G	(4.b\ 4.dd	.	2g/	-ni-	.	(4.b/	-ni-	.	(4.dd\	-ni-	.
.	8a\) 8cc	.	.	.	.	8a/)	.	.	8cc\)	.	.
4GG\] 4G]	(8g\L 8b	<	2g/	-es	.	2g/	-es	.	2b\	-es	.
.	8f#\ 8a	.	.	.	.	.	.	.	.	.	.
4r	8g\ 8b	.	.	.	.	.	.	.	.	.	.
.	8a\J) 8cc	[[	.	.	.	.	.	.	.	.	.
=39	=39	=39	=39	=39	=39	=39	=39	=39	=39	=39	=39
!	!	!	!	!	!LO:DY:a	!	!	!LO:DY:a	!	!	!LO:DY:a
2GG\ 2G	2b^<\ 2dd	.	2g/	Mon	p	2b\	Mon	p	2dd\	Mon	p
4FF#\ 4F#	4a\ 4dd	.	4f#/	coeur	.	4a\	coeur	.	4dd\	coeur	.
4GG\ 4G	4b\ 4dd	.	4g/	se	.	4b\	se	.	4dd\	se	.
!LO:LB:g=original	!LO:LB:g=original	!	!LO:LB:g=original	!	!	!LO:LB:g=original	!	!	!LO:LB:g=original	!	!
=40	=40	=40	=40	=40	=40	=40	=40	=40	=40	=40	=40
2EE\ 2E	2g\ 2ee	f	2e/	fond	.	2g/	fond	.	2ee\	fond	.
2BB\ 2B	2f#\ 2dd	.	2B/	en	.	2f#/	en	.	2dd\	en	.
=41	=41	=41	=41	=41	=41	=41	=41	=41	=41	=41	=41
4.AA\ 4.A	4.g\ 4.ee	sf	4.A/	dou-	.	4.g/	dou-	.	4.ee\	dou-	.
8AA\ 8A	8f#\ 8dd	.	8A/	-ces	.	8f#/	-ces	.	8dd\	-ces	.
4AA\ 4A	4e\ 4cc#X	.	4A/	har-	.	4e/	har-	.	4cc#X\	har-	.
4AA\ 4A	4g\ 4ee	.	4A/	-mo-	.	4g/	-mo-	.	4ee\	-mo-	.
=42	=42	=42	=42	=42	=42	=42	=42	=42	=42	=42	=42
2D\	(4.f#\ 4.dd	.	(4.d/	-ni-	.	(4.f#/	-ni-	.	4.dd\	-ni-	.
!	!	!	!	!	!LO:DY:a	!	!	!LO:DY:a	!	!	!LO:DY:a
.	8a\) 8ccn	.	8f#/)	.	>	8a/)	.	>	8ccn\	.	>
2G\	2g\ 2b	.	2g/	-es	]]	2g/	-es	]]	2b\	-es	]]
=43	=43	=43	=43	=43	=43	=43	=43	=43	=43	=43	=43
!	!	!	!	!	!LO:DY:a	!	!	!LO:DY:a	!	!	!LO:DY:a
4DD\ 4D	2d\ 2f# 2a 2dd	f	2f#/	Sei-	f	2a\	Sei-	f	2dd\	Sei-	f
4CC\ 4C	.	.	.	.	.	.	.	.	.	.	.
4BBB/ 4BB	2d\ 2f# 2a 2dd	.	2g/	-gneur	.	2b\	-gneur	.	2dd\	-gneur	.
4GGG/ 4GG	.	.	.	.	.	.	.	.	.	.	.
=44	=44	=44	=44	=44	=44	=44	=44	=44	=44	=44	=44
*	*^	*	*	*	*	*	*	*	*	*	*
2EE\ 2E	(<4ee/	2e\ 2g#X	.	2e^/	é-	.	2g#X^\	é-	.	(4ee^\	é-	.
.	4dd/)	.	.	.	.	.	.	.	.	4dd\)	.	.
4AA\ 4A	2cc/	2e\ 2a	.	(4a/	-cou-	.	2a/	-cou-	.	2cc\	-cou-	.
4GGn\ 4Gn	.	.	.	4gn/)	.	.	.	.	.	.	.	.
*	*v	*v	*	*	*	*	*	*	*	*	*	*
=45	=45	=45	=45	=45	=45	=45	=45	=45	=45	=45	=45
!	!LO:TX:b:B:t=lento.	!	!	!	!LO:DY:a	!	!	!LO:DY:a	!LO:TX:a:B:t=Lento	!	!LO:DY:a
2DD\ 2D	2d\ 2f# 2a 2dd	<	2d/ 2f#	-tez-	<	2a\	-tez-	<	2dd\	-tez-	<
!	!	!	!	!	!LO:DY:a	!	!	!LO:DY:a	!	!	!LO:DY:a
2GGG;/ 2GG	2g;\ 2b 2dd 2gg	[	2G;/ 2g	-nous	[ > ]]	2b;\	-nous	[ > ]]	2gg;\	-nous	[ > ]]
==	==	==	==	==	==	==	==	==	==	==	==
*-	*-	*-	*-	*-	*-	*-	*-	*-	*-	*-	*-
!!!RDF**kern: > = above
!!!RDF**kern: < = below
!!!system-decoration: [(s1,s2,s3)][(s4,s5)]
!!!ENC: Filip Voros
!!!END: 2022-08-09
!!!ENC: Julita Ruszuk
!!!END: 2022-09-05
!!!YEC: Copyright 2022 Narodowy Instytut Fryderyka Chopina (https://polishscores.org)
!!!YEM: License CC-BY-4.0 (https://creativecommons.org/licenses/by/4.0)
